src/Stylish/24/mimetypes/application-x-trash.svg

<?xml version="1.0" encoding="UTF-8" standalone="no"?>
<!-- Created with Inkscape (http://www.inkscape.org/) -->

<svg
   width="24"
   height="24"
   viewBox="0 0 24 24.000001"
   version="1.1"
   id="svg5"
   inkscape:version="1.2.2 (1:1.2.2+202305151914+b0a8486541)"
   sodipodi:docname="application-x-trash.svg"
   xmlns:inkscape="http://www.inkscape.org/namespaces/inkscape"
   xmlns:sodipodi="http://sodipodi.sourceforge.net/DTD/sodipodi-0.dtd"
   xmlns:xlink="http://www.w3.org/1999/xlink"
   xmlns="http://www.w3.org/2000/svg"
   xmlns:svg="http://www.w3.org/2000/svg">
  <sodipodi:namedview
     id="namedview7"
     pagecolor="#ffffff"
     bordercolor="#000000"
     borderopacity="0.25"
     inkscape:showpageshadow="2"
     inkscape:pageopacity="0.0"
     inkscape:pagecheckerboard="0"
     inkscape:deskcolor="#d1d1d1"
     inkscape:document-units="px"
     showgrid="false"
     inkscape:zoom="32.916667"
     inkscape:cx="12"
     inkscape:cy="12"
     inkscape:window-width="1920"
     inkscape:window-height="1012"
     inkscape:window-x="0"
     inkscape:window-y="0"
     inkscape:window-maximized="1"
     inkscape:current-layer="svg5"
     showguides="true" />
  <defs
     id="defs2">
    <linearGradient
       inkscape:collect="always"
       xlink:href="#linearGradient899"
       id="linearGradient1084"
       x1="4"
       y1="1"
       x2="18"
       y2="21"
       gradientUnits="userSpaceOnUse"
       gradientTransform="translate(1,1)" />
    <linearGradient
       inkscape:collect="always"
       id="linearGradient899">
      <stop
         style="stop-color:#dddddd;stop-opacity:1;"
         offset="0"
         id="stop895" />
      <stop
         style="stop-color:#eeeeee;stop-opacity:1;"
         offset="1"
         id="stop897" />
    </linearGradient>
  </defs>
  <path
     id="rect234"
     style="opacity:0.2;stroke-width:0.25;stroke-linecap:round;stroke-linejoin:round"
     d="m 5,3 h 9 l 6,6 v 13 c 0,0.554 -0.446,1 -1,1 H 5 C 4.446,23 4,22.554 4,22 V 4 C 4,3.446 4.446,3 5,3 Z"
     sodipodi:nodetypes="sccssssss" />
  <path
     id="rect448"
     style="fill:url(#linearGradient1084);fill-opacity:1;stroke-width:0.25;stroke-linecap:round;stroke-linejoin:round"
     d="m 5,2 h 9 l 1,4 5,2 v 13 c 0,0.554 -0.446,1 -1,1 H 5 C 4.446,22 4,21.554 4,21 V 3 C 4,2.446 4.446,2 5,2 Z"
     sodipodi:nodetypes="scccssssss" />
  <path
     d="M 20,9 H 15 C 14.446,9 14,8.554 14,8 V 2 l 6,6 z"
     style="opacity:0.2;fill:#000000;stroke-width:0.25;stroke-linecap:round;stroke-linejoin:round"
     id="path611"
     sodipodi:nodetypes="cssccc" />
  <path
     id="rect600"
     style="fill:#f8f8f8;fill-opacity:1;stroke-width:0.25;stroke-linecap:round;stroke-linejoin:round"
     d="M 20,8 H 15 C 14.446,8 14,7.554 14,7 V 2 Z"
     sodipodi:nodetypes="csscc" />
  <path
     id="rect289"
     style="fill:#747474;fill-opacity:1;stroke-width:1.41421"
     d="m 11,11 v 1 H 8.5 C 8.2230003,12 8,12.223 8,12.5 8,12.777 8.2230003,13 8.5,13 h 7 C 15.777,13 16,12.777 16,12.5 16,12.223 15.777,12 15.5,12 H 13 v -1 z m -2,3 v 6 c 0,0.553999 0.4460006,1 1,1 h 4 c 0.553999,0 1,-0.446001 1,-1 v -6 z" />
</svg>

<?xml version="1.0" encoding="UTF-8" standalone="no"?>
<!-- Created with Inkscape (http://www.inkscape.org/) -->

<svg
   width="24"
   height="24"
   viewBox="0 0 24 24.000001"
   version="1.1"
   id="svg5"
   inkscape:version="1.2.1 (9c6d41e410, 2022-07-14)"
   sodipodi:docname="application-x-trash.svg"
   xmlns:inkscape="http://www.inkscape.org/namespaces/inkscape"
   xmlns:sodipodi="http://sodipodi.sourceforge.net/DTD/sodipodi-0.dtd"
   xmlns="http://www.w3.org/2000/svg"
   xmlns:svg="http://www.w3.org/2000/svg">
  <sodipodi:namedview
     id="namedview7"
     pagecolor="#ffffff"
     bordercolor="#000000"
     borderopacity="0.25"
     inkscape:showpageshadow="2"
     inkscape:pageopacity="0.0"
     inkscape:pagecheckerboard="0"
     inkscape:deskcolor="#d1d1d1"
     inkscape:document-units="px"
     showgrid="false"
     inkscape:zoom="33.333333"
     inkscape:cx="11.985"
     inkscape:cy="12"
     inkscape:window-width="1920"
     inkscape:window-height="1011"
     inkscape:window-x="0"
     inkscape:window-y="32"
     inkscape:window-maximized="1"
     inkscape:current-layer="svg5"
     showguides="true" />
  <defs
     id="defs2" />
  <path
     id="rect234"
     style="opacity:0.2;stroke-width:0.25;stroke-linecap:round;stroke-linejoin:round"
     d="m 5,3 h 9 l 6,6 v 13 c 0,0.554 -0.446,1 -1,1 H 5 C 4.446,23 4,22.554 4,22 V 4 C 4,3.446 4.446,3 5,3 Z"
     sodipodi:nodetypes="sccssssss" />
  <path
     id="rect448"
     style="fill:#eaeaea;fill-opacity:1;stroke-width:0.25;stroke-linecap:round;stroke-linejoin:round"
     d="m 5,2 h 9 l 1,4 5,2 v 13 c 0,0.554 -0.446,1 -1,1 H 5 C 4.446,22 4,21.554 4,21 V 3 C 4,2.446 4.446,2 5,2 Z"
     sodipodi:nodetypes="scccssssss" />
  <path
     d="M 20,9 H 15 C 14.446,9 14,8.554 14,8 V 2 l 6,6 z"
     style="opacity:0.2;fill:#000000;stroke-width:0.25;stroke-linecap:round;stroke-linejoin:round"
     id="path611"
     sodipodi:nodetypes="cssccc" />
  <path
     id="rect600"
     style="fill:#f8f8f8;fill-opacity:1;stroke-width:0.25;stroke-linecap:round;stroke-linejoin:round"
     d="M 20,8 H 15 C 14.446,8 14,7.554 14,7 V 2 Z"
     sodipodi:nodetypes="csscc" />
  <path
     id="rect289"
     style="fill:#747474;stroke-width:1.41421;fill-opacity:1"
     d="M 11 11 L 11 12 L 8.5 12 C 8.2230003 12 8 12.223 8 12.5 C 8 12.777 8.2230003 13 8.5 13 L 15.5 13 C 15.777 13 16 12.777 16 12.5 C 16 12.223 15.777 12 15.5 12 L 13 12 L 13 11 L 11 11 z M 9 14 L 9 20 C 9 20.553999 9.4460006 21 10 21 L 14 21 C 14.553999 21 15 20.553999 15 20 L 15 14 L 9 14 z " />
</svg>
